!!!COM: Music21
!!!OTL: barndance_Ladies-Choice
!!!OMV: barndance_Ladies-Choice
**kern
*clefG2
*k[]
*M4/4
=1
4A
8eL
8fJ
8eL
8AJ
12AL
12A
12AJ
=
4G
8gL
8eJ
8dL
8cJ
8BL
8GJ
=
4A
8eL
8fJ
8eL
8AJ
12AL
12A
12AJ
=
8gL
8eJ
8dL
8eJ
8eL
8dJ
8cL
8BJ
!!linebreak:original
=
4A
8eL
8fJ
8eL
8AJ
12AL
12A
12AJ
=
4G
8gL
8eJ
8dL
8cJ
8BL
8GJ
=
4A
8eL
8fJ
8eL
8AJ
12AL
12A
12AJ
=
8gL
8eJ
8dL
8eJ
8eL
8dJ
8cL
8BJ
!!linebreak:original
=||
*M4/4
4A
8eL
8fJ
8eL
8AJ
12AL
12A
12AJ
=
4G
8gL
8eJ
8dL
8cJ
8BL
8GJ
=
4A
8eL
8fJ
8eL
8AJ
12AL
12A
12AJ
=
8gL
8eJ
8dL
8eJ
8eL
8dJ
8cL
8BJ
!!linebreak:original
=
4A
8eL
8fJ
8eL
8AJ
12AL
12A
12AJ
=
4G
8gL
8eJ
8dL
8cJ
8BL
8GJ
=
4A
8eL
8fJ
8eL
8AJ
12AL
12A
12AJ
=
8gL
8eJ
8dL
8fJ
8eL
8GJ
8AL
8BJ
=||
4c
8eL
8cJ
8gL
8cJ
8eL
8cJ
!!linebreak:original
=
4d
8fL
8dJ
8aL
8dJ
8fL
8dJ
=
8cL
8dJ
8eL
8gJ
8ccL
8bJ
8ccL
8aJ
=
8gL
8aJ
8gL
8eJ
8dL
8GJ
8AL
8BJ
=
4c
8eL
8cJ
8gL
8cJ
8eL
8cJ
=
4d
8fL
8dJ
8aL
8dJ
8fL
8dJ
!!linebreak:original
=
8cL
8dJ
8eL
8gJ
8ccL
8bJ
8ccL
8aJ
=
8gL
8eJ
8dL
8fJ
8eL
8GJ
8AL
8BJ
=||
*M4/4
4A
8eL
8fJ
8eL
8AJ
12AL
12A
12AJ
=
4G
8gL
8eJ
8dL
8cJ
8BL
8GJ
!!linebreak:original
=
4A
8eL
8fJ
8eL
8AJ
12AL
12A
12AJ
=
8gL
8eJ
8dL
8eJ
8eL
8dJ
8cL
8BJ
=
4A
8eL
8fJ
8eL
8AJ
12AL
12A
12AJ
=
4G
8gL
8eJ
8dL
8cJ
8BL
8GJ
=
4A
8eL
8fJ
8eL
8AJ
12AL
12A
12AJ
!!linebreak:original
=
8gL
8eJ
8dL
8eJ
8eL
8dJ
8cL
8BJ
=||
*M4/4
4A
8eL
8fJ
8eL
8AJ
12AL
12A
12AJ
=
4G
8gL
8eJ
8dL
8cJ
8BL
8GJ
=
4A
8eL
8fJ
8eL
8AJ
12AL
12A
12AJ
!!linebreak:original
=
8gL
8eJ
8dL
8eJ
8eL
8dJ
8cL
8BJ
=
4A
8eL
8fJ
8eL
8AJ
12AL
12A
12AJ
=
4G
8gL
8eJ
8dL
8cJ
8BL
8GJ
=
4A
8eL
8fJ
8eL
8AJ
12AL
12A
12AJ
=
8gL
8eJ
8dL
8fJ
8eL
8GJ
8AL
8BJ
!!linebreak:original
=||
4c
8eL
8cJ
8gL
8cJ
8eL
8cJ
=
4d
8fL
8dJ
8aL
8dJ
8fL
8dJ
=
8cL
8dJ
8eL
8gJ
8ccL
8bJ
8ccL
8aJ
=
8gL
8aJ
8gL
8eJ
8dL
8GJ
8AL
8BJ
=
4c
8eL
8cJ
8gL
8cJ
8eL
8cJ
!!pagebreak:original
=
4d
8fL
8dJ
8aL
8dJ
8fL
8dJ
=
8cL
8dJ
8eL
8gJ
8ccL
8bJ
8ccL
8aJ
=
8gL
8eJ
8dL
8eJ
8eL
8dJ
8cL
8BJ
=||
*-
